; generated by PrusaSlicer 2.5.0+win64 on 2022-12-09 at 10:12:59 UTC


;
;
; 

; external perimeters extrusion width = 0.45mm
; perimeters extrusion width = 0.45mm
; infill extrusion width = 0.45mm
; solid infill extrusion width = 0.45mm
; top infill extrusion width = 0.40mm
; support material extrusion width = 0.35mm
; first layer extrusion width = 0.42mm

M73 P0 R54
M73 Q0 S54
M201 X1000 Y1000 Z200 E5000 ; sets maximum accelerations, mm/sec^2
M203 X200 Y200 Z12 E120 ; sets maximum feedrates, mm / sec
M204 P1250 R1250 T1250 ; sets acceleration (P, T) and retract acceleration (R), mm/sec^2
M205 X8.00 Y8.00 Z0.40 E4.50 ; sets the jerk limits, mm/sec
M205 S0 T0 ; sets the minimum extruding and travel feed rate, mm/sec
M107
;TYPE:Custom
M862.3 P "MK3S" ; printer model check
M862.1 P0.4 ; nozzle diameter check
M115 U3.11.0 ; tell printer latest fw version
G90 ; use absolute coordinates
M83 ; extruder relative mode
M104 S215 ; set extruder temp
M140 S60 ; set bed temp
M190 S60 ; wait for bed temp
M109 S215 ; wait for extruder temp
G28 W ; home all without mesh bed level
G80 ; mesh bed leveling

G1 Z0.2 F720
G1 Y-3 F1000 ; go outside print area
G92 E0
G1 X60 E9 F1000 ; intro line
G1 X100 E12.5 F1000 ; intro line

G92 E0
M221 S95

; Don't change E values below. Excessive value can damage the printer.
M907 E430 ; set extruder motor current
G21 ; set units to millimeters
G90 ; use absolute coordinates
M83 ; use relative distances for extrusion
M900 K0.05 ; Filament gcode LA 1.5
M900 K30 ; Filament gcode LA 1.0
M107
;LAYER_CHANGE
;Z:0.2
;HEIGHT:0.2
;BEFORE_LAYER_CHANGE
G92 E0.0
;0.2


G1 E-.8 F2100
G1 Z.4 F720
;AFTER_LAYER_CHANGE
;0.2
G1 X110.679 Y88.799 F10800
G1 Z.2 F720
G1 E.8 F2100
M204 S800
;TYPE:Skirt/Brim
;WIDTH:0.42
G1 F1200
G1 X111.872 Y87.938 E.04612
G1 X112.828 Y87.767 E.03045
G1 X118.32 Y87.773 E.1722
G1 X133.675 Y88.751 E.48242
G1 X135.065 Y89.234 E.04612
G1 X136.14 Y90.714 E.05735
G1 X143.14 Y114.214 E.76882
G1 X143.254 Y115 E.02491
G1 X143.254 Y118.5 E.10974
G1 X142.861 Y119.917 E.04612
G1 X141.795 Y120.931 E.04612
G1 X140.5 Y121.254 E.04186
G1 X109.5 Y121.254 E.97198
G1 X108.083 Y120.861 E.04612
G1 X107.069 Y119.795 E.04612
G1 X106.746 Y118.5 E.04186
G1 X106.771 Y114.629 E.12138
G1 X110.099 Y90.15 E.77458
G1 X110.656 Y88.854 E.04424
M204 S1000
M73 P0 R53
G1 X111.011 Y89.015 F10800
M204 S800
G1 F1200
G1 X111.037 Y88.959 E.00195
G1 X112.828 Y88.144 E.0617
G1 X118.296 Y88.149 E.17144
G1 X133.651 Y89.128 E.48242
G1 X134.931 Y89.602 E.04278
G1 X135.778 Y90.821 E.04657
G1 X142.778 Y114.321 E.76882
G1 X142.877 Y115 E.0215
G1 X142.877 Y118.5 E.10974
G1 X142.485 Y119.807 E.04278
G1 X141.44 Y120.683 E.04278
G1 X140.5 Y120.877 E.03008
G1 X109.5 Y120.877 E.97198
G1 X108.193 Y120.485 E.04278
G1 X107.317 Y119.44 E.04278
G1 X107.123 Y118.5 E.03008
G1 X107.145 Y114.68 E.11978
G1 X110.473 Y90.201 E.77458
G1 X110.986 Y89.07 E.03895
M204 S1000
; printing object baslercamera_holder.stl id:0 copy 0
;WIPE_START
G1 F8640
G1 X111.037 Y88.959 E-.0282
G1 X112.828 Y88.144 E-.45436
G1 X114.03 Y88.145 E-.27744
;WIPE_END
G1 E-.04 F2100
G1 Z.6 F720
G1 X118.145 Y91.02 F10800
G1 Z.2 F720
G1 E.8 F2100
M204 S800
;TYPE:Support material
G1 F1200
G1 X117.301 Y91.02 E.02646
G1 X117.02 Y91.301 E.01247
G1 X117.02 Y103.329 E.37713
G1 X112.828 Y103.329 E.13143
G1 X112.828 Y90.521 E.40159
G1 X118.145 Y90.521 E.1667
G1 X118.145 Y90.963 E.01387
M204 S1000
;WIPE_START
G1 F8640
G1 X118.145 Y90.521 E-.10212
G1 X115.296 Y90.521 E-.65788
;WIPE_END
G1 E-.04 F2100
G1 Z.6 F720
G1 X116.62 Y103.16 F10800
G1 Z.2 F720
G1 E.8 F2100
M204 S800
G1 F1200
G1 X116.62 Y90.861 E.38563
G1 X116.201 Y90.861 E.01314
G1 X116.201 Y102.99 E.38031
G1 X115.783 Y102.99 E.01314
G1 X115.783 Y90.861 E.38031
G1 X115.364 Y90.861 E.01314
M73 Q0 S53
G1 X115.364 Y102.99 E.38031
G1 X114.945 Y102.99 E.01314
G1 X114.945 Y90.861 E.38031
G1 X114.526 Y90.861 E.01314
G1 X114.526 Y102.99 E.38031
G1 X114.107 Y102.99 E.01314
G1 X114.107 Y90.861 E.38031
G1 X113.688 Y90.861 E.01314
G1 X113.688 Y102.99 E.38031
G1 X113.269 Y102.99 E.01314
G1 X113.269 Y90.691 E.38563
M204 S1000
;WIPE_START
G1 F8640
G1 X113.269 Y93.982 E-.76
;WIPE_END
G1 E-.04 F2100
G1 Z.6 F720
G1 X128.289 Y99.269 F10800
G1 Z.2 F720
G1 E.8 F2100
M204 S800
;TYPE:Perimeter
;WIDTH:0.419999
G1 F1200
G1 X128.289 Y92.287 E.21891
G1 X132.713 Y92.287 E.13871
G1 X132.713 Y102.993 E.33569
;WIDTH:0.469698
G1 X132.688 Y104.406 E.05013
;WIDTH:0.492778
G1 X132.677 Y104.532 E.00474
G1 X132.64 Y104.413 E.00464
;WIDTH:0.469698
G1 X132.182 Y103.077 E.05013
;WIDTH:0.419999
G1 X131.432 Y101.745 E.04792
G1 X130.422 Y100.599 E.04792
G1 X129.197 Y99.689 E.04784
G1 X128.344 Y99.293 E.02948
M204 S1000
;WIPE_START
G1 F8640
G1 X128.318 Y96.002 E-.76
;WIPE_END
G1 E-.04 F2100
G1 Z.6 F720
G1 X118.326 Y107.51 F10800
G1 Z.2 F720
G1 E.8 F2100
M204 S800
;WIDTH:0.498548
G1 F1200
G1 X118.355 Y107.588 E.00317
;WIDTH:0.481805
G1 X118.586 Y108.256 E.02578
;WIDTH:0.450902
G1 X118.818 Y108.923 E.02396
;WIDTH:0.419999
G1 X119.637 Y110.351 E.05161
G1 X120.578 Y111.401 E.04423
G1 X121.804 Y112.311 E.04786
G1 X123.304 Y112.983 E.05152
G1 X124.797 Y113.289 E.04779
G1 X126.203 Y113.289 E.04411
G1 X127.809 Y112.946 E.05149
G1 X129.196 Y112.311 E.04782
G1 X130.334 Y111.481 E.04416
G1 X131.363 Y110.351 E.04792
G1 X132.182 Y108.923 E.05161
;WIDTH:0.45091
G1 X132.414 Y108.256 E.02396
;WIDTH:0.48182
G1 X132.645 Y107.589 E.02578
;WIDTH:0.498568
G1 X132.674 Y107.51 E.00317
G1 X132.682 Y107.594 E.00322
;WIDTH:0.48182
G1 X132.697 Y108.3 E.02578
;WIDTH:0.45091
G1 X132.713 Y109.007 E.02396
;WIDTH:0.419999
G1 X132.713 Y114.716 E.17901
G1 X132.736 Y115.38 E.02083
G1 X132.826 Y115.561 E.00634
G1 X133.012 Y115.721 E.00769
G1 X133.279 Y115.787 E.0086
G1 X139.713 Y115.787 E.20175
G1 X139.713 Y116.75 E.03019
M73 P1 R53
M73 Q1 S53
G1 X139.713 Y117.713 E.03019
G1 X110.287 Y117.713 E.92263
G1 X110.287 Y115.787 E.06038
G1 X117.721 Y115.787 E.2331
G1 X117.988 Y115.721 E.0086
G1 X118.174 Y115.561 E.00769
G1 X118.264 Y115.38 E.00634
G1 X118.287 Y115.221 E.00502
G1 X118.287 Y109.007 E.19486
;WIDTH:0.450902
G1 X118.303 Y108.3 E.02396
;WIDTH:0.481805
G1 X118.318 Y107.594 E.02578
;WIDTH:0.498548
G1 X118.32 Y107.569 E.00095
M204 S1000
;WIPE_START
G1 F8640
G1 X118.355 Y107.588 E-.00903
G1 X118.586 Y108.256 E-.16311
G1 X118.818 Y108.923 E-.16311
G1 X119.637 Y110.351 E-.38006
G1 X119.766 Y110.495 E-.04469
;WIPE_END
G1 E-.04 F2100
G1 Z.6 F720
G1 X122.711 Y99.269 F10800
G1 Z.2 F720
G1 E.8 F2100
M204 S800
;WIDTH:0.419999
G1 F1200
G1 X121.804 Y99.689 E.03134
G1 X120.578 Y100.599 E.04786
G1 X119.568 Y101.745 E.04792
G1 X118.818 Y103.077 E.04792
;WIDTH:0.469572
G1 X118.36 Y104.413 E.05012
;WIDTH:0.492708
G1 X118.323 Y104.532 E.00466
G1 X118.312 Y104.406 E.00475
;WIDTH:0.469572
G1 X118.287 Y102.993 E.05012
;WIDTH:0.419999
G1 X118.287 Y92.287 E.33569
G1 X122.711 Y92.287 E.13871
G1 X122.711 Y99.209 E.21703
M204 S1000
G1 X123.088 Y99.513 F10800
M204 S800
;TYPE:External perimeter
G1 F1200
G1 X122.026 Y99.993 E.03654
G1 X120.859 Y100.85 E.0454
G1 X119.895 Y101.933 E.04546
G1 X119.177 Y103.193 E.04547
G1 X118.735 Y104.575 E.04551
G1 X118.588 Y105.98 E.04429
G1 X118.735 Y107.425 E.04552
G1 X119.177 Y108.807 E.04551
G1 X119.895 Y110.067 E.04547
G1 X120.859 Y111.15 E.04546
G1 X122.026 Y112.007 E.04539
G1 X123.345 Y112.602 E.04536
G1 X124.797 Y112.912 E.04655
G1 X126.243 Y112.908 E.04534
G1 X127.655 Y112.602 E.04531
G1 X128.974 Y112.007 E.04536
G1 X130.112 Y111.176 E.04416
G1 X131.082 Y110.099 E.04546
G1 X131.823 Y108.807 E.0467
G1 X132.265 Y107.425 E.0455
G1 X132.413 Y106.02 E.0443
G1 X132.257 Y104.537 E.04675
G1 X131.823 Y103.193 E.04428
G1 X131.105 Y101.933 E.04547
G1 X130.112 Y100.824 E.04669
G1 X128.975 Y99.994 E.04414
G1 X127.912 Y99.513 E.03656
G1 X127.912 Y91.91 E.23839
G1 X133.09 Y91.91 E.16235
G1 X133.09 Y115.221 E.73091
G1 X133.128 Y115.335 E.00374
G1 X133.279 Y115.41 E.00529
G1 X140.09 Y115.41 E.21357
G1 X140.09 Y118.09 E.08403
G1 X109.91 Y118.09 E.94627
G1 X109.91 Y115.41 E.08403
G1 X117.721 Y115.41 E.24492
G1 X117.872 Y115.335 E.00529
G1 X117.91 Y115.221 E.00374
G1 X117.91 Y91.91 E.73091
G1 X123.088 Y91.91 E.16235
G1 X123.088 Y99.453 E.23651
M204 S1000
G1 X122.688 Y99.497 F10800
;WIPE_START
G1 F8640
G1 X122.026 Y99.993 E-.27507
G1 X120.859 Y100.85 E-.3343
G1 X120.425 Y101.337 E-.15063
;WIPE_END
G1 E-.04 F2100
G1 Z.6 F720
G1 X132.677 Y104.532 F10800
G1 Z.2 F720
G1 E.8 F2100
M204 S800
;TYPE:Perimeter
;WIDTH:0.492778
G1 F1200
G1 X132.701 Y105.003 E.01764
;WIDTH:0.443359
G1 X132.726 Y105.474 E.0157
;WIDTH:0.39394
G1 X132.751 Y105.945 E.01377
;WIDTH:0.34452
G1 X132.751 Y106.055 E.00277
;WIDTH:0.39394
G1 X132.726 Y106.526 E.01377
;WIDTH:0.443359
G1 X132.701 Y106.997 E.0157
;WIDTH:0.492778
G1 X132.677 Y107.468 E.01764
;WIDTH:0.498568
G1 X132.674 Y107.51 E.00158
M204 S1000
;WIPE_START
G1 F8640
G1 X132.677 Y107.468 E-.00961
G1 X132.701 Y106.997 E-.1089
G1 X132.726 Y106.526 E-.1089
G1 X132.751 Y106.055 E-.1089
G1 X132.751 Y105.945 E-.02551
G1 X132.726 Y105.474 E-.1089
G1 X132.701 Y105.003 E-.1089
G1 X132.677 Y104.532 E-.1089
;WIPE_END
G1 E-.1115 F2100
G1 Z.6 F720
G1 X118.323 Y104.532 F10800
G1 Z.2 F720
G1 E.8 F2100
M204 S800
;WIDTH:0.492708
G1 F1200
G1 X118.299 Y105.003 E.01764
;WIDTH:0.443637
G1 X118.274 Y105.474 E.01571
;WIDTH:0.394566
G1 X118.25 Y105.945 E.01379
;WIDTH:0.345496
G1 X118.25 Y106.055 E.00276
;WIDTH:0.394567
G1 X118.274 Y106.526 E.01379
;WIDTH:0.443638
G1 X118.299 Y106.997 E.01571
;WIDTH:0.492708
G1 X118.323 Y107.468 E.01764
;WIDTH:0.498548
G1 X118.326 Y107.51 E.00159
M204 S1000
;WIPE_START
G1 F8640
G1 X118.323 Y107.468 E-.00971
G1 X118.299 Y106.997 E-.10888
G1 X118.274 Y106.526 E-.10888
G1 X118.25 Y106.055 E-.10888
G1 X118.25 Y105.945 E-.02536
G1 X118.274 Y105.474 E-.10888
G1 X118.299 Y105.003 E-.10888
G1 X118.323 Y104.532 E-.10888
;WIPE_END
G1 E-.11165 F2100
G1 Z.6 F720
G1 X122.598 Y93.189 F10800
G1 Z.2 F720
G1 E.8 F2100
M204 S800
;TYPE:Solid infill
;WIDTH:0.432474
G1 F1200
G1 X121.979 Y92.57 E.02836
G1 X121.428 Y92.57 E.01784
G1 X122.428 Y93.57 E.04582
G1 X122.428 Y94.121 E.01784
G1 X120.877 Y92.57 E.07106
G1 X120.326 Y92.57 E.01784
G1 X122.428 Y94.672 E.09629
G1 X122.428 Y95.223 E.01784
G1 X119.775 Y92.57 E.12153
G1 X119.224 Y92.57 E.01784
G1 X122.428 Y95.774 E.14677
G1 X122.428 Y96.325 E.01784
G1 X118.673 Y92.57 E.172
G1 X118.57 Y92.57 E.00335
G1 X118.57 Y93.017 E.01449
G1 X122.428 Y96.876 E.17674
G1 X122.428 Y97.427 E.01784
G1 X118.57 Y93.568 E.17674
G1 X118.57 Y94.119 E.01784
G1 X122.428 Y97.977 E.17674
G1 X122.428 Y98.528 E.01784
G1 X118.57 Y94.67 E.17674
G1 X118.57 Y95.221 E.01784
G1 X122.428 Y99.086 E.17689
G1 X122.052 Y99.254 E.01335
G1 X118.57 Y95.772 E.15951
G1 X118.57 Y96.323 E.01784
G1 X121.681 Y99.434 E.14252
G1 X121.359 Y99.663 E.0128
G1 X118.57 Y96.874 E.12777
G1 X118.57 Y97.425 E.01784
G1 X121.041 Y99.895 E.11318
G1 X120.722 Y100.128 E.01277
G1 X118.57 Y97.976 E.0986
G1 X118.57 Y98.526 E.01784
G1 X120.412 Y100.369 E.08439
G1 X120.148 Y100.655 E.01263
G1 X118.57 Y99.077 E.07228
G1 X118.57 Y99.628 E.01784
G1 X119.887 Y100.946 E.06036
G1 X119.627 Y101.237 E.01264
G1 X118.57 Y100.179 E.04843
G1 X118.57 Y100.73 E.01784
G1 X119.373 Y101.533 E.0368
G1 X119.166 Y101.877 E.013
G1 X118.57 Y101.281 E.02731
G1 X118.57 Y101.832 E.01784
G1 X118.965 Y102.227 E.01811
G1 X118.765 Y102.578 E.01307
G1 X118.4 Y102.213 E.01669
M204 S1000
;WIPE_START
G1 F8640
G1 X118.765 Y102.578 E-.11898
G1 X118.965 Y102.227 E-.0932
G1 X118.57 Y101.832 E-.12913
G1 X118.57 Y101.281 E-.12721
G1 X119.166 Y101.877 E-.1947
G1 X119.373 Y101.533 E-.09268
G1 X119.361 Y101.521 E-.00411
;WIPE_END
G1 E-.04 F2100
G1 Z.6 F720
G1 X131.808 Y92.4 F10800
G1 Z.2 F720
G1 E.8 F2100
M204 S800
;WIDTH:0.434013
G1 F1200
G1 X132.43 Y93.022 E.02862
G1 X132.43 Y93.576 E.01799
G1 X131.424 Y92.57 E.04625
G1 X130.871 Y92.57 E.01799
G1 X132.43 Y94.129 E.07169
G1 X132.43 Y94.682 E.01799
G1 X130.318 Y92.57 E.09712
G1 X129.765 Y92.57 E.01799
G1 X132.43 Y95.235 E.12256
G1 X132.43 Y95.788 E.01799
G1 X129.212 Y92.57 E.148
G1 X128.659 Y92.57 E.01799
G1 X132.43 Y96.341 E.17343
G1 X132.43 Y96.894 E.01799
G1 X128.572 Y93.036 E.17744
G1 X128.572 Y93.589 E.01799
G1 X132.43 Y97.447 E.17744
G1 X132.43 Y98 E.01799
G1 X128.572 Y94.142 E.17744
G1 X128.572 Y94.695 E.01799
G1 X132.43 Y98.553 E.17744
G1 X132.43 Y99.106 E.01799
G1 X128.572 Y95.248 E.17744
G1 X128.572 Y95.801 E.01799
G1 X132.43 Y99.66 E.17744
G1 X132.43 Y100.213 E.01799
G1 X128.572 Y96.354 E.17744
G1 X128.572 Y96.907 E.01799
G1 X132.43 Y100.766 E.17744
G1 X132.43 Y101.319 E.01799
G1 X128.572 Y97.461 E.17744
G1 X128.572 Y98.014 E.01799
G1 X132.43 Y101.872 E.17744
G1 X132.43 Y102.425 E.01799
G1 X128.402 Y98.397 E.18524
M204 S1000
;WIPE_START
G1 F8640
G1 X130.73 Y100.724 E-.76
;WIPE_END
G1 E-.04 F2100
G1 Z.6 F720
G1 X139.6 Y116.664 F10800
G1 Z.2 F720
G1 E.8 F2100
M204 S800
;WIDTH:0.420547
G1 F1200
G1 X139.006 Y116.07 E.02637
G1 X138.472 Y116.07 E.01677
G1 X139.43 Y117.028 E.04255
G1 X139.43 Y117.43 E.01263
G1 X139.298 Y117.43 E.00414
G1 X137.938 Y116.07 E.0604
G1 X137.404 Y116.07 E.01677
G1 X138.764 Y117.43 E.0604
G1 X138.23 Y117.43 E.01677
G1 X136.87 Y116.07 E.0604
G1 X136.336 Y116.07 E.01677
G1 X137.696 Y117.43 E.0604
G1 X137.162 Y117.43 E.01677
G1 X135.802 Y116.07 E.0604
G1 X135.268 Y116.07 E.01677
G1 X136.628 Y117.43 E.0604
G1 X136.094 Y117.43 E.01677
G1 X134.734 Y116.07 E.0604
G1 X134.2 Y116.07 E.01677
G1 X135.56 Y117.43 E.0604
G1 X135.026 Y117.43 E.01677
G1 X133.496 Y115.9 E.06794
M204 S1000
;WIPE_START
G1 F8640
G1 X135.026 Y117.43 E-.4996
G1 X135.56 Y117.43 E-.12331
G1 X135.14 Y117.01 E-.13709
;WIPE_END
G1 E-.04 F2100
G1 Z.6 F720
G1 X132.6 Y109.664 F10800
G1 Z.2 F720
G1 E.8 F2100
M204 S800
G1 F1200
G1 X132.28 Y109.344 E.01419
G1 X132.086 Y109.684 E.01229
G1 X132.43 Y110.028 E.01529
G1 X132.43 Y110.562 E.01677
G1 X131.891 Y110.023 E.02394
G1 X131.696 Y110.362 E.01229
G1 X132.43 Y111.096 E.03258
G1 X132.43 Y111.63 E.01677
G1 X131.463 Y110.663 E.04295
G1 X131.211 Y110.945 E.01188
G1 X132.43 Y112.164 E.05416
G1 X132.43 Y112.698 E.01677
G1 X130.958 Y111.226 E.06536
G1 X130.706 Y111.508 E.01188
G1 X132.43 Y113.232 E.07656
G1 X132.43 Y113.766 E.01677
G1 X130.427 Y111.763 E.08895
G1 X130.118 Y111.988 E.012
G1 X132.43 Y114.3 E.10266
G1 X132.43 Y114.834 E.01677
G1 X129.81 Y112.214 E.11637
G1 X129.501 Y112.439 E.012
G1 X134.492 Y117.43 E.22163
G1 X133.958 Y117.43 E.01677
G1 X129.173 Y112.645 E.21248
G1 X128.804 Y112.81 E.01269
G1 X133.424 Y117.43 E.20514
G1 X132.89 Y117.43 E.01677
G1 X128.435 Y112.976 E.19781
G1 X128.066 Y113.141 E.01269
G1 X132.356 Y117.43 E.19048
G1 X131.822 Y117.43 E.01677
G1 X127.669 Y113.278 E.18439
G1 X127.229 Y113.372 E.01413
G1 X131.288 Y117.43 E.18021
G1 X130.754 Y117.43 E.01677
G1 X126.789 Y113.466 E.17604
G1 X126.347 Y113.557 E.01419
G1 X130.219 Y117.43 E.17198
G1 X129.685 Y117.43 E.01677
G1 X125.827 Y113.572 E.17133
G1 X125.293 Y113.572 E.01677
G1 X129.151 Y117.43 E.17133
G1 X128.617 Y117.43 E.01677
M73 Q2 S53
G1 X124.755 Y113.568 E.1715
M73 P2 R53
G1 X124.094 Y113.441 E.02114
G1 X128.083 Y117.43 E.17715
G1 X127.549 Y117.43 E.01677
G1 X123.415 Y113.296 E.18359
G1 X123.08 Y113.206 E.01089
G1 X122.557 Y112.972 E.01797
G1 X127.015 Y117.43 E.19796
G1 X126.481 Y117.43 E.01677
G1 X121.466 Y112.415 E.2227
G1 X120.495 Y111.706 E.03774
G1 X120.371 Y111.594 E.00527
G1 X119.423 Y110.536 E.0446
G1 X119.156 Y110.105 E.01592
G1 X118.57 Y109.519 E.02602
G1 X118.57 Y110.053 E.01677
G1 X125.947 Y117.43 E.32759
G1 X125.413 Y117.43 E.01677
G1 X118.57 Y110.587 E.30388
G1 X118.57 Y111.121 E.01677
G1 X124.879 Y117.43 E.28016
G1 X124.345 Y117.43 E.01677
G1 X118.57 Y111.655 E.25645
G1 X118.57 Y112.189 E.01677
G1 X123.811 Y117.43 E.23274
G1 X123.277 Y117.43 E.01677
G1 X118.57 Y112.723 E.20902
G1 X118.57 Y113.257 E.01677
G1 X122.743 Y117.43 E.18531
G1 X122.209 Y117.43 E.01677
G1 X118.57 Y113.791 E.16159
G1 X118.57 Y114.325 E.01677
G1 X121.675 Y117.43 E.13788
G1 X121.141 Y117.43 E.01677
G1 X118.57 Y114.859 E.11416
G1 X118.57 Y115.228 E.01158
G1 X118.549 Y115.373 E.00458
G1 X120.607 Y117.43 E.09136
G1 X120.073 Y117.43 E.01677
G1 X118.387 Y115.745 E.07485
G1 X118.09 Y115.982 E.01193
