; generated by PrusaSlicer 2.5.0+win64 on 2022-12-09 at 10:16:49 UTC


;
;
; 

; external perimeters extrusion width = 0.45mm
; perimeters extrusion width = 0.45mm
; infill extrusion width = 0.45mm
; solid infill extrusion width = 0.45mm
; top infill extrusion width = 0.40mm
; support material extrusion width = 0.35mm
; first layer extrusion width = 0.42mm

M73 P0 R79
M73 Q0 S80
M201 X1000 Y1000 Z200 E5000 ; sets maximum accelerations, mm/sec^2
M203 X200 Y200 Z12 E120 ; sets maximum feedrates, mm / sec
M204 P1250 R1250 T1250 ; sets acceleration (P, T) and retract acceleration (R), mm/sec^2
M205 X8.00 Y8.00 Z0.40 E4.50 ; sets the jerk limits, mm/sec
M205 S0 T0 ; sets the minimum extruding and travel feed rate, mm/sec
M107
;TYPE:Custom
M862.3 P "MK3S" ; printer model check
M862.1 P0.4 ; nozzle diameter check
M115 U3.11.0 ; tell printer latest fw version
G90 ; use absolute coordinates
M83 ; extruder relative mode
M104 S215 ; set extruder temp
M140 S60 ; set bed temp
M190 S60 ; wait for bed temp
M109 S215 ; wait for extruder temp
G28 W ; home all without mesh bed level
G80 ; mesh bed leveling

G1 Z0.2 F720
G1 Y-3 F1000 ; go outside print area
G92 E0
G1 X60 E9 F1000 ; intro line
G1 X100 E12.5 F1000 ; intro line

G92 E0
M221 S95

; Don't change E values below. Excessive value can damage the printer.
M907 E430 ; set extruder motor current
G21 ; set units to millimeters
G90 ; use absolute coordinates
M83 ; use relative distances for extrusion
M900 K0.05 ; Filament gcode LA 1.5
M900 K30 ; Filament gcode LA 1.0
M107
;LAYER_CHANGE
;Z:0.2
;HEIGHT:0.2
;BEFORE_LAYER_CHANGE
G92 E0.0
;0.2


G1 E-.8 F2100
G1 Z.4 F720
;AFTER_LAYER_CHANGE
;0.2
G1 X87.772 Y89.214 F10800
G1 Z.2 F720
G1 E.8 F2100
M204 S800
;TYPE:Skirt/Brim
;WIDTH:0.42
G1 F1200
G1 X88.818 Y88.338 E.04278
G1 X89.757 Y88.144 E.03008
G1 X126.035 Y88.178 E1.13747
G1 X156.399 Y93.347 E.96573
G1 X157.622 Y93.952 E.04278
G1 X158.377 Y95.69 E.05942
G1 X158.377 Y114.31 E.5838
G1 X157.985 Y115.617 E.04278
G1 X156.399 Y116.653 E.05942
G1 X125.636 Y121.856 E.97824
G1 X89.757 Y121.856 E1.12496
G1 X88.45 Y121.464 E.04278
G1 X87.574 Y120.419 E.04278
G1 X87.38 Y119.479 E.03008
G1 X87.38 Y90.521 E.90795
G1 X87.755 Y89.272 E.0409
M204 S1000
; printing object rodconnector90d.stl id:0 copy 0
;WIPE_START
G1 F8640
G1 X88.818 Y88.338 E-.32671
G1 X89.757 Y88.144 E-.22155
G1 X90.674 Y88.145 E-.21174
;WIPE_END
G1 E-.04 F2100
G1 Z.6 F720
G1 X101.71 Y100.884 F10800
G1 Z.2 F720
G1 E.8 F2100
M204 S800
;TYPE:Support material
G1 F1200
G1 X102.265 Y101.016 E.01788
G1 X102.797 Y101.221 E.01788
G1 X103.297 Y101.495 E.01788
G1 X103.756 Y101.833 E.01788
G1 X104.166 Y102.23 E.01788
G1 X104.519 Y102.677 E.01788
G1 X104.81 Y103.168 E.01788
G1 X105.033 Y103.693 E.01788
G1 X105.183 Y104.243 E.01788
G1 X105.259 Y104.808 E.01788
G1 X105.259 Y105.378 E.01788
G1 X105.183 Y105.944 E.01788
G1 X105.033 Y106.494 E.01788
G1 X104.81 Y107.019 E.01788
G1 X104.519 Y107.509 E.01788
G1 X104.166 Y107.957 E.01788
G1 X103.756 Y108.353 E.01788
G1 X103.297 Y108.691 E.01788
G1 X102.797 Y108.966 E.01788
G1 X102.265 Y109.17 E.01788
G1 X101.71 Y109.303 E.01788
G1 X101.143 Y109.36 E.01788
G1 X100.573 Y109.341 E.01788
G1 X100.01 Y109.246 E.01788
G1 X99.466 Y109.077 E.01788
G1 X98.948 Y108.837 E.01788
G1 X98.468 Y108.53 E.01788
G1 X98.032 Y108.162 E.01788
G1 X97.65 Y107.739 E.01788
G1 X97.327 Y107.269 E.01788
G1 X97.07 Y106.76 E.01788
G1 X96.883 Y106.221 E.01788
G1 X96.769 Y105.662 E.01788
G1 X96.731 Y105.093 E.01788
G1 X96.769 Y104.524 E.01788
G1 X96.883 Y103.965 E.01788
G1 X97.07 Y103.427 E.01788
G1 X97.327 Y102.918 E.01788
G1 X97.65 Y102.448 E.01788
G1 X98.032 Y102.025 E.01788
G1 X98.468 Y101.656 E.01788
G1 X98.948 Y101.35 E.01788
G1 X99.466 Y101.11 E.01788
G1 X100.01 Y100.941 E.01788
G1 X100.573 Y100.846 E.01788
G1 X101.143 Y100.827 E.01788
G1 X101.654 Y100.878 E.01611
M204 S1000
G1 X104.889 Y106.376 F10800
M204 S800
G1 F1200
G1 X104.889 Y104.601 E.05564
G1 X104.85 Y104.311 E.00918
G1 X104.711 Y103.804 E.01645
G1 X104.47 Y103.26 E.01868
G1 X104.47 Y106.927 E.11497
G1 X104.239 Y107.317 E.01422
G1 X104.051 Y107.555 E.00951
G1 X104.051 Y102.632 E.15435
G1 X103.914 Y102.458 E.00695
G1 X103.632 Y102.185 E.01228
G1 X103.632 Y108.001 E.18234
G1 X103.537 Y108.093 E.00417
G1 X103.213 Y108.332 E.01259
G1 X103.213 Y101.855 E.20308
G1 X102.794 Y101.606 E.01527
G1 X102.794 Y108.58 E.21865
G1 X102.654 Y108.657 E.00502
G1 X102.375 Y108.764 E.00936
G1 X102.375 Y101.422 E.23021
G1 X102.164 Y101.341 E.0071
G1 X101.956 Y101.291 E.0067
G1 X101.956 Y108.895 E.23841
G1 X101.537 Y108.979 E.0134
G1 X101.537 Y101.207 E.24367
G1 X101.118 Y101.167 E.0132
G1 X101.118 Y109.019 E.2462
G1 X100.699 Y109.005 E.01314
G1 X100.699 Y101.181 E.24533
G1 X100.28 Y101.239 E.01326
G1 X100.28 Y108.947 E.24168
G1 X100.089 Y108.915 E.00608
G1 X99.861 Y108.844 E.00748
G1 X99.861 Y101.342 E.23523
G1 X99.588 Y101.427 E.00898
G1 X99.442 Y101.494 E.00503
G1 X99.442 Y108.692 E.22567
G1 X99.023 Y108.482 E.01469
G1 X99.023 Y101.704 E.21251
G1 X98.604 Y101.985 E.01582
G1 X98.604 Y108.201 E.19489
G1 X98.269 Y107.917 E.01378
G1 X98.185 Y107.825 E.00389
G1 X98.185 Y102.361 E.17132
G1 X97.917 Y102.658 E.01256
G1 X97.766 Y102.877 E.00832
G1 X97.766 Y107.309 E.13897
G1 X97.62 Y107.095 E.00813
G1 X97.348 Y106.525 E.01982
G1 X97.348 Y103.253 E.10258
M204 S1000
;WIPE_START
G1 F8640
G1 X97.348 Y106.525 E-.75542
G1 X97.356 Y106.543 E-.00458
;WIPE_END
G1 E-.04 F2100
G1 Z.6 F720
G1 X125.636 Y95.927 F10800
G1 Z.2 F720
G1 E.8 F2100
M204 S800
G1 F1200
G1 X93.801 Y95.927 E.99817
G1 X93.52 Y96.208 E.01247
G1 X93.52 Y113.792 E.55133
G1 X93.801 Y114.073 E.01247
G1 X125.636 Y114.073 E.99817
G1 X125.636 Y119.479 E.16949
G1 X89.757 Y119.479 E1.12496
M73 Q0 S79
G1 X89.757 Y90.521 E.90795
G1 X125.636 Y90.521 E1.12496
G1 X125.636 Y95.87 E.16772
M204 S1000
;WIPE_START
G1 F8640
G1 X125.636 Y92.579 E-.76
;WIPE_END
G1 E-.04 F2100
G1 Z.6 F720
G1 X125 Y119.309 F10800
G1 Z.2 F720
G1 E.8 F2100
M204 S800
G1 F1200
G1 X125 Y114.413 E.15353
G1 X124.581 Y114.413 E.01314
G1 X124.581 Y119.139 E.14821
G1 X124.162 Y119.139 E.01314
G1 X124.162 Y114.413 E.14821
G1 X123.743 Y114.413 E.01314
G1 X123.743 Y119.139 E.14821
G1 X123.324 Y119.139 E.01314
G1 X123.324 Y114.413 E.14821
G1 X122.905 Y114.413 E.01314
G1 X122.905 Y119.139 E.14821
G1 X122.486 Y119.139 E.01314
G1 X122.486 Y114.413 E.14821
G1 X122.067 Y114.413 E.01314
G1 X122.067 Y119.139 E.14821
G1 X121.648 Y119.139 E.01314
G1 X121.648 Y114.413 E.14821
G1 X121.229 Y114.413 E.01314
G1 X121.229 Y119.139 E.14821
G1 X120.81 Y119.139 E.01314
G1 X120.81 Y114.413 E.14821
G1 X120.391 Y114.413 E.01314
G1 X120.391 Y119.139 E.14821
G1 X119.972 Y119.139 E.01314
G1 X119.972 Y114.413 E.14821
G1 X119.553 Y114.413 E.01314
G1 X119.553 Y119.139 E.14821
G1 X119.134 Y119.139 E.01314
G1 X119.134 Y114.413 E.14821
G1 X118.715 Y114.413 E.01314
G1 X118.715 Y119.139 E.14821
G1 X118.296 Y119.139 E.01314
G1 X118.296 Y114.413 E.14821
G1 X117.877 Y114.413 E.01314
G1 X117.877 Y119.139 E.14821
G1 X117.458 Y119.139 E.01314
G1 X117.458 Y114.413 E.14821
G1 X117.039 Y114.413 E.01314
G1 X117.039 Y119.139 E.14821
G1 X116.62 Y119.139 E.01314
G1 X116.62 Y114.413 E.14821
G1 X116.201 Y114.413 E.01314
G1 X116.201 Y119.139 E.14821
G1 X115.783 Y119.139 E.01314
G1 X115.783 Y114.413 E.14821
G1 X115.364 Y114.413 E.01314
G1 X115.364 Y119.139 E.14821
G1 X114.945 Y119.139 E.01314
G1 X114.945 Y114.413 E.14821
G1 X114.526 Y114.413 E.01314
G1 X114.526 Y119.139 E.14821
G1 X114.107 Y119.139 E.01314
G1 X114.107 Y114.413 E.14821
G1 X113.688 Y114.413 E.01314
G1 X113.688 Y119.139 E.14821
G1 X113.269 Y119.139 E.01314
G1 X113.269 Y114.413 E.14821
G1 X112.85 Y114.413 E.01314
G1 X112.85 Y119.139 E.14821
G1 X112.431 Y119.139 E.01314
G1 X112.431 Y114.413 E.14821
G1 X112.012 Y114.413 E.01314
G1 X112.012 Y119.139 E.14821
G1 X111.593 Y119.139 E.01314
G1 X111.593 Y114.413 E.14821
G1 X111.174 Y114.413 E.01314
G1 X111.174 Y119.139 E.14821
G1 X110.755 Y119.139 E.01314
G1 X110.755 Y114.413 E.14821
G1 X110.336 Y114.413 E.01314
G1 X110.336 Y119.139 E.14821
G1 X109.917 Y119.139 E.01314
G1 X109.917 Y114.413 E.14821
G1 X109.498 Y114.413 E.01314
G1 X109.498 Y119.139 E.14821
G1 X109.079 Y119.139 E.01314
G1 X109.079 Y114.413 E.14821
G1 X108.66 Y114.413 E.01314
G1 X108.66 Y119.139 E.14821
G1 X108.241 Y119.139 E.01314
G1 X108.241 Y114.413 E.14821
G1 X107.822 Y114.413 E.01314
G1 X107.822 Y119.139 E.14821
G1 X107.403 Y119.139 E.01314
M73 P1 R79
M73 Q1 S79
G1 X107.403 Y114.413 E.14821
G1 X106.984 Y114.413 E.01314
G1 X106.984 Y119.139 E.14821
G1 X106.565 Y119.139 E.01314
G1 X106.565 Y114.413 E.14821
G1 X106.146 Y114.413 E.01314
G1 X106.146 Y119.139 E.14821
G1 X105.727 Y119.139 E.01314
G1 X105.727 Y114.413 E.14821
G1 X105.308 Y114.413 E.01314
G1 X105.308 Y119.139 E.14821
G1 X104.889 Y119.139 E.01314
G1 X104.889 Y114.413 E.14821
G1 X104.47 Y114.413 E.01314
G1 X104.47 Y119.139 E.14821
G1 X104.051 Y119.139 E.01314
G1 X104.051 Y114.413 E.14821
G1 X103.632 Y114.413 E.01314
G1 X103.632 Y119.139 E.14821
G1 X103.213 Y119.139 E.01314
G1 X103.213 Y114.413 E.14821
G1 X102.794 Y114.413 E.01314
G1 X102.794 Y119.139 E.14821
G1 X102.375 Y119.139 E.01314
G1 X102.375 Y114.413 E.14821
G1 X101.956 Y114.413 E.01314
G1 X101.956 Y119.139 E.14821
G1 X101.537 Y119.139 E.01314
G1 X101.537 Y114.413 E.14821
G1 X101.118 Y114.413 E.01314
G1 X101.118 Y119.139 E.14821
G1 X100.699 Y119.139 E.01314
G1 X100.699 Y114.413 E.14821
G1 X100.28 Y114.413 E.01314
G1 X100.28 Y119.139 E.14821
G1 X99.861 Y119.139 E.01314
G1 X99.861 Y114.413 E.14821
G1 X99.442 Y114.413 E.01314
G1 X99.442 Y119.139 E.14821
G1 X99.023 Y119.139 E.01314
G1 X99.023 Y114.413 E.14821
G1 X98.604 Y114.413 E.01314
G1 X98.604 Y119.139 E.14821
G1 X98.185 Y119.139 E.01314
G1 X98.185 Y114.413 E.14821
G1 X97.766 Y114.413 E.01314
G1 X97.766 Y119.139 E.14821
G1 X97.348 Y119.139 E.01314
G1 X97.348 Y114.413 E.14821
G1 X96.929 Y114.413 E.01314
G1 X96.929 Y119.139 E.14821
G1 X96.51 Y119.139 E.01314
G1 X96.51 Y114.413 E.14821
G1 X96.091 Y114.413 E.01314
G1 X96.091 Y119.139 E.14821
G1 X95.672 Y119.139 E.01314
G1 X95.672 Y114.413 E.14821
G1 X95.253 Y114.413 E.01314
G1 X95.253 Y119.139 E.14821
G1 X94.834 Y119.139 E.01314
G1 X94.834 Y114.413 E.14821
G1 X94.415 Y114.413 E.01314
G1 X94.415 Y119.139 E.14821
G1 X93.996 Y119.139 E.01314
G1 X93.996 Y114.413 E.14821
G1 X93.661 Y114.413 E.01051
G1 X93.577 Y114.329 E.00372
G1 X93.577 Y119.139 E.15084
G1 X93.158 Y119.139 E.01314
G1 X93.158 Y90.861 E.88667
G1 X93.577 Y90.861 E.01314
M73 P1 R78
G1 X93.577 Y95.671 E.15084
G1 X93.661 Y95.587 E.00372
G1 X93.996 Y95.587 E.01051
G1 X93.996 Y90.861 E.14821
G1 X94.415 Y90.861 E.01314
G1 X94.415 Y95.587 E.14821
G1 X94.834 Y95.587 E.01314
G1 X94.834 Y90.861 E.14821
G1 X95.253 Y90.861 E.01314
G1 X95.253 Y95.587 E.14821
G1 X95.672 Y95.587 E.01314
G1 X95.672 Y90.861 E.14821
G1 X96.091 Y90.861 E.01314
G1 X96.091 Y95.587 E.14821
G1 X96.51 Y95.587 E.01314
G1 X96.51 Y90.861 E.14821
G1 X96.929 Y90.861 E.01314
G1 X96.929 Y95.587 E.14821
G1 X97.348 Y95.587 E.01314
G1 X97.348 Y90.861 E.14821
G1 X97.766 Y90.861 E.01314
G1 X97.766 Y95.587 E.14821
G1 X98.185 Y95.587 E.01314
G1 X98.185 Y90.861 E.14821
G1 X98.604 Y90.861 E.01314
G1 X98.604 Y95.587 E.14821
G1 X99.023 Y95.587 E.01314
G1 X99.023 Y90.861 E.14821
G1 X99.442 Y90.861 E.01314
G1 X99.442 Y95.587 E.14821
G1 X99.861 Y95.587 E.01314
G1 X99.861 Y90.861 E.14821
G1 X100.28 Y90.861 E.01314
G1 X100.28 Y95.587 E.14821
G1 X100.699 Y95.587 E.01314
G1 X100.699 Y90.861 E.14821
G1 X101.118 Y90.861 E.01314
G1 X101.118 Y95.587 E.14821
G1 X101.537 Y95.587 E.01314
G1 X101.537 Y90.861 E.14821
G1 X101.956 Y90.861 E.01314
G1 X101.956 Y95.587 E.14821
G1 X102.375 Y95.587 E.01314
G1 X102.375 Y90.861 E.14821
G1 X102.794 Y90.861 E.01314
G1 X102.794 Y95.587 E.14821
G1 X103.213 Y95.587 E.01314
G1 X103.213 Y90.861 E.14821
G1 X103.632 Y90.861 E.01314
G1 X103.632 Y95.587 E.14821
G1 X104.051 Y95.587 E.01314
G1 X104.051 Y90.861 E.14821
G1 X104.47 Y90.861 E.01314
G1 X104.47 Y95.587 E.14821
G1 X104.889 Y95.587 E.01314
G1 X104.889 Y90.861 E.14821
G1 X105.308 Y90.861 E.01314
G1 X105.308 Y95.587 E.14821
G1 X105.727 Y95.587 E.01314
G1 X105.727 Y90.861 E.14821
G1 X106.146 Y90.861 E.01314
G1 X106.146 Y95.587 E.14821
G1 X106.565 Y95.587 E.01314
G1 X106.565 Y90.861 E.14821
G1 X106.984 Y90.861 E.01314
G1 X106.984 Y95.587 E.14821
G1 X107.403 Y95.587 E.01314
G1 X107.403 Y90.861 E.14821
G1 X107.822 Y90.861 E.01314
G1 X107.822 Y95.587 E.14821
G1 X108.241 Y95.587 E.01314
G1 X108.241 Y90.861 E.14821
G1 X108.66 Y90.861 E.01314
G1 X108.66 Y95.587 E.14821
G1 X109.079 Y95.587 E.01314
G1 X109.079 Y90.861 E.14821
G1 X109.498 Y90.861 E.01314
G1 X109.498 Y95.587 E.14821
G1 X109.917 Y95.587 E.01314
G1 X109.917 Y90.861 E.14821
G1 X110.336 Y90.861 E.01314
G1 X110.336 Y95.587 E.14821
G1 X110.755 Y95.587 E.01314
G1 X110.755 Y90.861 E.14821
G1 X111.174 Y90.861 E.01314
G1 X111.174 Y95.587 E.14821
G1 X111.593 Y95.587 E.01314
G1 X111.593 Y90.861 E.14821
G1 X112.012 Y90.861 E.01314
G1 X112.012 Y95.587 E.14821
G1 X112.431 Y95.587 E.01314
G1 X112.431 Y90.861 E.14821
G1 X112.85 Y90.861 E.01314
G1 X112.85 Y95.587 E.14821
G1 X113.269 Y95.587 E.01314
G1 X113.269 Y90.861 E.14821
G1 X113.688 Y90.861 E.01314
G1 X113.688 Y95.587 E.14821
G1 X114.107 Y95.587 E.01314
G1 X114.107 Y90.861 E.14821
G1 X114.526 Y90.861 E.01314
G1 X114.526 Y95.587 E.14821
G1 X114.945 Y95.587 E.01314
G1 X114.945 Y90.861 E.14821
G1 X115.364 Y90.861 E.01314
G1 X115.364 Y95.587 E.14821
G1 X115.783 Y95.587 E.01314
G1 X115.783 Y90.861 E.14821
G1 X116.201 Y90.861 E.01314
G1 X116.201 Y95.587 E.14821
G1 X116.62 Y95.587 E.01314
G1 X116.62 Y90.861 E.14821
G1 X117.039 Y90.861 E.01314
G1 X117.039 Y95.587 E.14821
G1 X117.458 Y95.587 E.01314
G1 X117.458 Y90.861 E.14821
G1 X117.877 Y90.861 E.01314
G1 X117.877 Y95.587 E.14821
G1 X118.296 Y95.587 E.01314
G1 X118.296 Y90.861 E.14821
G1 X118.715 Y90.861 E.01314
G1 X118.715 Y95.587 E.14821
G1 X119.134 Y95.587 E.01314
G1 X119.134 Y90.861 E.14821
G1 X119.553 Y90.861 E.01314
G1 X119.553 Y95.587 E.14821
G1 X119.972 Y95.587 E.01314
G1 X119.972 Y90.861 E.14821
G1 X120.391 Y90.861 E.01314
G1 X120.391 Y95.587 E.14821
G1 X120.81 Y95.587 E.01314
G1 X120.81 Y90.861 E.14821
G1 X121.229 Y90.861 E.01314
G1 X121.229 Y95.587 E.14821
G1 X121.648 Y95.587 E.01314
G1 X121.648 Y90.861 E.14821
G1 X122.067 Y90.861 E.01314
G1 X122.067 Y95.587 E.14821
G1 X122.486 Y95.587 E.01314
G1 X122.486 Y90.861 E.14821
G1 X122.905 Y90.861 E.01314
G1 X122.905 Y95.587 E.14821
G1 X123.324 Y95.587 E.01314
G1 X123.324 Y90.861 E.14821
G1 X123.743 Y90.861 E.01314
G1 X123.743 Y95.587 E.14821
G1 X124.162 Y95.587 E.01314
G1 X124.162 Y90.861 E.14821
G1 X124.581 Y90.861 E.01314
G1 X124.581 Y95.587 E.14821
G1 X125 Y95.587 E.01314
G1 X125 Y90.691 E.15353
M204 S1000
;WIPE_START
G1 F8640
G1 X125 Y93.982 E-.76
;WIPE_END
G1 E-.04 F2100
G1 Z.6 F720
G1 X92.739 Y119.309 F10800
G1 Z.2 F720
G1 E.8 F2100
M204 S800
G1 F1200
G1 X92.739 Y90.861 E.89199
G1 X92.32 Y90.861 E.01314
G1 X92.32 Y119.139 E.88667
G1 X91.901 Y119.139 E.01314
G1 X91.901 Y90.861 E.88667
G1 X91.482 Y90.861 E.01314
G1 X91.482 Y119.139 E.88667
G1 X91.063 Y119.139 E.01314
G1 X91.063 Y90.861 E.88667
G1 X90.644 Y90.861 E.01314
G1 X90.644 Y119.139 E.88667
G1 X90.225 Y119.139 E.01314
G1 X90.225 Y90.691 E.89199
M204 S1000
;WIPE_START
G1 F8640
M73 Q1 S78
G1 X90.225 Y93.982 E-.76
;WIPE_END
G1 E-.04 F2100
G1 Z.6 F720
G1 X142.613 Y107.789 F10800
G1 Z.2 F720
G1 E.8 F2100
M204 S800
;TYPE:Perimeter
;WIDTH:0.419999
G1 F1200
G1 X155.213 Y107.789 E.39507
G1 X155.213 Y110.298 E.07865
G1 X155.213 Y112.806 E.07865
G1 X94.787 Y112.806 E1.89461
G1 X94.787 Y106.577 E.19531
;WIDTH:0.463087
G1 X94.809 Y106.387 E.00667
;WIDTH:0.506174
G1 X94.83 Y106.197 E.00736
;WIDTH:0.549261
G1 X94.852 Y106.008 E.00804
;WIDTH:0.592348
G1 X94.873 Y105.818 E.00873
G1 X94.862 Y105.033 E.03587
;WIDTH:0.600681
G1 X94.877 Y104.244 E.03658
G1 X94.855 Y104.078 E.00777
;WIDTH:0.555511
G1 X94.832 Y103.912 E.00714
;WIDTH:0.51034
G1 X94.81 Y103.746 E.00651
;WIDTH:0.46517
G1 X94.787 Y103.58 E.00588
;WIDTH:0.419999
G1 X94.787 Y97.194 E.20023
G1 X155.213 Y97.194 E1.89461
M73 P2 R78
M73 Q2 S78
G1 X155.213 Y102.211 E.1573
