; generated by PrusaSlicer 2.5.0+win64 on 2022-12-09 at 10:15:31 UTC


;
;
; 

; external perimeters extrusion width = 0.45mm
; perimeters extrusion width = 0.45mm
; infill extrusion width = 0.45mm
; solid infill extrusion width = 0.45mm
; top infill extrusion width = 0.40mm
; support material extrusion width = 0.35mm
; first layer extrusion width = 0.42mm

M73 P0 R53
M73 Q0 S53
M201 X1000 Y1000 Z200 E5000 ; sets maximum accelerations, mm/sec^2
M203 X200 Y200 Z12 E120 ; sets maximum feedrates, mm / sec
M204 P1250 R1250 T1250 ; sets acceleration (P, T) and retract acceleration (R), mm/sec^2
M205 X8.00 Y8.00 Z0.40 E4.50 ; sets the jerk limits, mm/sec
M205 S0 T0 ; sets the minimum extruding and travel feed rate, mm/sec
M107
;TYPE:Custom
M862.3 P "MK3S" ; printer model check
M862.1 P0.4 ; nozzle diameter check
M115 U3.11.0 ; tell printer latest fw version
G90 ; use absolute coordinates
M83 ; extruder relative mode
M104 S215 ; set extruder temp
M140 S60 ; set bed temp
M190 S60 ; wait for bed temp
M109 S215 ; wait for extruder temp
G28 W ; home all without mesh bed level
G80 ; mesh bed leveling

G1 Z0.2 F720
G1 Y-3 F1000 ; go outside print area
G92 E0
G1 X60 E9 F1000 ; intro line
G1 X100 E12.5 F1000 ; intro line

G92 E0
M221 S95

; Don't change E values below. Excessive value can damage the printer.
M907 E430 ; set extruder motor current
G21 ; set units to millimeters
G90 ; use absolute coordinates
M83 ; use relative distances for extrusion
M900 K0.05 ; Filament gcode LA 1.5
M900 K30 ; Filament gcode LA 1.0
M107
;LAYER_CHANGE
;Z:0.2
;HEIGHT:0.2
;BEFORE_LAYER_CHANGE
G92 E0.0
;0.2


M73 P0 R52
G1 E-.8 F2100
G1 Z.4 F720
;AFTER_LAYER_CHANGE
;0.2
G1 X98.693 Y94.135 F10800
G1 Z.2 F720
G1 E.8 F2100
M204 S800
;TYPE:Skirt/Brim
;WIDTH:0.42
G1 F1200
G1 X100.499 Y93.303 E.06235
G1 X148.357 Y93.326 E1.50055
G1 X149.039 Y93.464 E.02182
G1 X149.843 Y93.809 E.02743
G1 X150.754 Y94.549 E.0368
G1 X151.046 Y94.919 E.01477
G1 X151.46 Y95.739 E.02879
G1 X151.614 Y96.276 E.01752
G1 X151.695 Y97 E.02284
G1 X151.656 Y113.461 E.51613
G1 X151.322 Y114.592 E.03699
G1 X150.754 Y115.451 E.03227
G1 X149.847 Y116.189 E.03666
G1 X149.042 Y116.535 E.02747
G1 X148.023 Y116.698 E.03237
G1 X100.499 Y116.697 E1.49006
G1 X98.739 Y115.916 E.06039
G1 X98.306 Y115.345 E.02249
G1 X98.006 Y114.788 E.01981
G1 X97.734 Y113.973 E.02694
G1 X97.623 Y113 E.03071
G1 X97.658 Y96.454 E.51878
G1 X98 Y95.226 E.03999
G1 X98.661 Y94.185 E.03864
M204 S1000
; printing object rodconnector.stl id:0 copy 0
;WIPE_START
G1 F8640
G1 X100.499 Y93.303 E-.47087
G1 X101.752 Y93.304 E-.28913
;WIPE_END
G1 E-.04 F2100
G1 Z.6 F720
G1 X114.428 Y108.361 F10800
G1 Z.2 F720
G1 E.8 F2100
M204 S800
;TYPE:Perimeter
;WIDTH:0.420042
G1 F1200
G1 X114.627 Y108.765 E.01412
G1 X115.009 Y109.37 E.02242
G1 X115.446 Y109.935 E.02242
G1 X115.934 Y110.458 E.02242
G1 X116.469 Y110.932 E.02242
G1 X117.046 Y111.354 E.02242
G1 X117.66 Y111.72 E.02242
G1 X118.305 Y112.027 E.02242
G1 X118.977 Y112.272 E.02242
G1 X119.668 Y112.453 E.02242
G1 X120.022 Y112.496 E.01118
;WIDTH:0.390578
G1 X120.376 Y112.539 E.0103
;WIDTH:0.361113
G1 X121.086 Y112.575 E.01881
;WIDTH:0.345879
G1 X121.797 Y112.562 E.01792
;WIDTH:0.389359
G1 X122.508 Y112.499 E.02056
;WIDTH:0.419999
G1 X123.21 Y112.362 E.02242
G1 X123.892 Y112.146 E.02241
G1 X124.55 Y111.867 E.02241
G1 X125.179 Y111.528 E.02242
G1 X125.776 Y111.128 E.02253
G1 X126.328 Y110.68 E.0223
G1 X126.838 Y110.179 E.02241
G1 X127.299 Y109.632 E.02241
G1 X127.706 Y109.045 E.02241
G1 X128.057 Y108.422 E.02241
G1 X128.348 Y107.769 E.02241
G1 X128.576 Y107.092 E.02241
G1 X128.74 Y106.396 E.02241
G1 X128.838 Y105.688 E.02241
G1 X128.869 Y104.973 E.02241
G1 X128.833 Y104.26 E.02241
G1 X128.73 Y103.552 E.02241
G1 X128.561 Y102.857 E.02241
G1 X128.328 Y102.182 E.02241
G1 X128.033 Y101.531 E.02241
G1 X127.678 Y100.91 E.02241
G1 X127.266 Y100.326 E.02241
G1 X126.802 Y99.782 E.02241
G1 X126.288 Y99.285 E.02241
G1 X125.734 Y98.84 E.0223
G1 X125.133 Y98.445 E.02253
G1 X124.502 Y98.11 E.02241
G1 X123.842 Y97.836 E.02241
G1 X123.159 Y97.624 E.02241
G1 X122.457 Y97.496 E.02237
;WIDTH:0.383479
G1 X121.748 Y97.436 E.02015
;WIDTH:0.342992
G1 X121.037 Y97.426 E.01774
;WIDTH:0.364361
G1 X120.326 Y97.465 E.01904
;WIDTH:0.392141
G1 X119.971 Y97.512 E.01039
;WIDTH:0.419999
G1 X119.617 Y97.558 E.01121
G1 X118.926 Y97.744 E.02241
G1 X118.257 Y97.994 E.02241
G1 X117.613 Y98.305 E.02241
G1 X117.002 Y98.676 E.02241
G1 X116.428 Y99.102 E.02241
G1 X115.896 Y99.58 E.02241
G1 X115.412 Y100.105 E.02241
G1 X114.978 Y100.674 E.02241
G1 X114.42 Y101.639 E.03494
G1 X110.136 Y101.631 E.13433
G1 X100.793 Y99.772 E.29869
G1 X100.787 Y97.168 E.08165
G1 X119.638 Y97.174 E.59103
;WIDTH:0.419413
G1 X120.001 Y97.159 E.01139
;WIDTH:0.389939
G1 X120.365 Y97.144 E.0105
;WIDTH:0.360465
G1 X121.09 Y97.132 E.01914
;WIDTH:0.345181
G1 X121.815 Y97.137 E.01823
;WIDTH:0.388986
G1 X122.544 Y97.159 E.021
;WIDTH:0.419999
G1 X123.206 Y97.175 E.02076
G1 X147.82 Y97.183 E.77174
G1 X147.808 Y112.82 E.49029
M73 Q0 S52
G1 X123.206 Y112.826 E.77136
G1 X122.477 Y112.845 E.02288
;WIDTH:0.3842
G1 X121.751 Y112.865 E.0206
;WIDTH:0.343688
G1 X121.027 Y112.868 E.01813
;WIDTH:0.365013
G1 X120.299 Y112.855 E.01948
;WIDTH:0.392524
G1 X119.933 Y112.841 E.01066
;WIDTH:0.420042
G1 X119.566 Y112.827 E.0115
G1 X100.787 Y112.832 E.58886
G1 X100.793 Y110.228 E.08166
G1 X110.136 Y108.369 E.29872
G1 X114.368 Y108.361 E.1327
M204 S1000
G1 X114.665 Y107.984 F10800
M204 S800
;TYPE:External perimeter
;WIDTH:0.419999
G1 F1200
G1 X114.946 Y108.565 E.02025
G1 X115.308 Y109.14 E.02131
G1 X115.722 Y109.679 E.02131
G1 X116.185 Y110.176 E.02131
G1 X116.692 Y110.628 E.02131
G1 X117.24 Y111.031 E.02131
G1 X117.823 Y111.38 E.02131
G1 X118.436 Y111.673 E.02131
G1 X119.074 Y111.907 E.02131
G1 X119.731 Y112.081 E.02131
G1 X120.401 Y112.192 E.02131
G1 X121.079 Y112.24 E.02131
G1 X121.758 Y112.224 E.02131
G1 X122.433 Y112.145 E.02131
G1 X123.097 Y112.002 E.02131
G1 X123.746 Y111.798 E.02131
G1 X124.372 Y111.535 E.02131
G1 X124.971 Y111.213 E.02131
G1 X125.539 Y110.835 E.02142
G1 X126.065 Y110.41 E.02119
G1 X126.551 Y109.935 E.0213
G1 X126.99 Y109.416 E.02131
G1 X127.378 Y108.859 E.02131
G1 X127.713 Y108.267 E.0213
G1 X127.991 Y107.647 E.02131
G1 X128.209 Y107.004 E.02131
G1 X128.366 Y106.343 E.02131
G1 X128.461 Y105.67 E.02131
G1 X128.492 Y104.991 E.02131
G1 X128.459 Y104.312 E.02131
G1 X128.363 Y103.64 E.02131
G1 X128.204 Y102.979 E.02131
G1 X127.984 Y102.336 E.02131
G1 X127.705 Y101.717 E.02131
G1 X127.369 Y101.126 E.0213
G1 X126.979 Y100.57 E.02131
G1 X126.538 Y100.052 E.02131
G1 X126.052 Y99.578 E.0213
G1 X125.525 Y99.154 E.02119
G1 X124.955 Y98.778 E.02142
G1 X124.356 Y98.458 E.02131
G1 X123.729 Y98.195 E.02131
G1 X123.08 Y97.993 E.0213
G1 X122.416 Y97.852 E.02131
G1 X121.741 Y97.775 E.02131
G1 X121.061 Y97.76 E.02131
G1 X120.383 Y97.81 E.02131
G1 X119.713 Y97.923 E.02131
G1 X119.057 Y98.098 E.02131
G1 X118.42 Y98.334 E.0213
G1 X117.807 Y98.629 E.02131
G1 X117.225 Y98.979 E.02131
G1 X116.679 Y99.383 E.02131
G1 X116.172 Y99.836 E.02131
G1 X115.711 Y100.335 E.02131
G1 X115.298 Y100.874 E.02131
G1 X114.937 Y101.45 E.02131
G1 X114.653 Y102.016 E.01986
G1 X110.099 Y102.008 E.14278
G1 X100.417 Y100.081 E.30953
G1 X100.41 Y97.035 E.09552
G1 X100.437 Y96.791 E.00771
G1 X147.933 Y96.806 E1.48918
G1 X148.103 Y96.854 E.00555
G1 X148.196 Y97.012 E.00574
G1 X148.185 Y112.976 E.50056
G1 X148.139 Y113.102 E.00418
G1 X147.958 Y113.197 E.00644
G1 X100.437 Y113.209 E1.48997
G1 X100.41 Y112.984 E.00714
M73 P1 R52
M73 Q1 S52
G1 X100.417 Y109.919 E.0961
G1 X110.099 Y107.992 E.30952
G1 X114.605 Y107.984 E.14128
M204 S1000
G1 X114.594 Y108.377 F10800
;WIPE_START
G1 F8640
G1 X114.946 Y108.565 E-.15562
G1 X115.308 Y109.14 E-.1569
G1 X115.722 Y109.679 E-.1569
G1 X116.185 Y110.176 E-.1569
G1 X116.617 Y110.561 E-.13368
;WIPE_END
G1 E-.04 F2100
G1 Z.6 F720
G1 X117.654 Y111.839 F10800
G1 Z.2 F720
G1 E.8 F2100
M204 S800
;TYPE:Solid infill
;WIDTH:0.427382
G1 F1200
G1 X118.359 Y112.545 E.0319
G1 X117.816 Y112.545 E.01738
G1 X113.916 Y108.645 E.17632
G1 X113.373 Y108.646 E.01735
G1 X117.272 Y112.545 E.17629
G1 X116.729 Y112.545 E.01738
G1 X112.83 Y108.647 E.17625
G1 X112.287 Y108.648 E.01735
G1 X116.185 Y112.545 E.17621
G1 X115.642 Y112.546 E.01738
G1 X111.745 Y108.649 E.17617
G1 X111.202 Y108.65 E.01735
G1 X115.098 Y112.546 E.17614
G1 X114.554 Y112.546 E.01738
G1 X110.659 Y108.651 E.1761
G1 X110.164 Y108.652 E.01582
G1 X110.124 Y108.66 E.0013
G1 X114.011 Y112.546 E.1757
G1 X113.467 Y112.546 E.01738
G1 X109.671 Y108.75 E.17163
G1 X109.217 Y108.84 E.01478
G1 X112.924 Y112.546 E.16756
G1 X112.38 Y112.546 E.01738
G1 X108.764 Y108.93 E.16348
G1 X108.31 Y109.021 E.01478
G1 X111.837 Y112.547 E.15941
G1 X111.293 Y112.547 E.01738
G1 X107.857 Y109.111 E.15534
G1 X107.404 Y109.201 E.01478
G1 X110.749 Y112.547 E.15126
G1 X110.206 Y112.547 E.01738
G1 X106.95 Y109.291 E.14719
G1 X106.497 Y109.382 E.01478
G1 X109.662 Y112.547 E.14312
G1 X109.119 Y112.547 E.01738
G1 X106.043 Y109.472 E.13904
G1 X105.59 Y109.562 E.01478
G1 X108.575 Y112.547 E.13497
G1 X108.032 Y112.548 E.01738
G1 X105.136 Y109.652 E.1309
G1 X104.683 Y109.743 E.01478
G1 X107.488 Y112.548 E.12682
G1 X106.944 Y112.548 E.01738
G1 X104.229 Y109.833 E.12275
G1 X103.776 Y109.923 E.01478
G1 X106.401 Y112.548 E.11868
G1 X105.857 Y112.548 E.01738
G1 X103.322 Y110.013 E.1146
G1 X102.869 Y110.103 E.01478
G1 X105.314 Y112.548 E.11053
G1 X104.77 Y112.548 E.01738
G1 X102.415 Y110.194 E.10646
G1 X101.962 Y110.284 E.01478
G1 X104.227 Y112.549 E.10238
G1 X103.683 Y112.549 E.01738
G1 X101.508 Y110.374 E.09831
G1 X101.075 Y110.46 E.01411
G1 X101.075 Y110.485 E.00078
G1 X103.139 Y112.549 E.09331
G1 X102.596 Y112.549 E.01738
G1 X101.074 Y111.027 E.06879
G1 X101.073 Y111.57 E.01734
G1 X102.052 Y112.549 E.04427
G1 X101.509 Y112.549 E.01738
G1 X100.902 Y111.943 E.02741
M204 S1000
;WIPE_START
G1 F8640
G1 X101.509 Y112.549 E-.19796
G1 X102.052 Y112.549 E-.12551
G1 X101.073 Y111.57 E-.31978
G1 X101.074 Y111.064 E-.11675
;WIPE_END
G1 E-.04 F2100
G1 Z.6 F720
G1 X118.619 Y97.738 F10800
G1 Z.2 F720
G1 E.8 F2100
M204 S800
;WIDTH:0.424336
G1 F1200
G1 X118.337 Y97.456 E.01266
G1 X117.798 Y97.456 E.01711
G1 X118.098 Y97.757 E.01348
G1 X117.735 Y97.933 E.0128
G1 X117.258 Y97.456 E.02139
G1 X116.718 Y97.456 E.01711
G1 X117.379 Y98.116 E.02963
G1 X117.042 Y98.319 E.01247
G1 X116.179 Y97.455 E.03871
G1 X115.639 Y97.455 E.01711
G1 X116.719 Y98.535 E.04844
G1 X116.407 Y98.763 E.01224
G1 X115.1 Y97.455 E.05866
G1 X114.56 Y97.455 E.01711
G1 X116.113 Y99.008 E.06965
G1 X115.828 Y99.262 E.01212
G1 X114.021 Y97.455 E.08107
G1 X113.481 Y97.455 E.01711
G1 X115.557 Y99.531 E.09311
G1 X115.299 Y99.812 E.01211
G1 X112.941 Y97.454 E.10572
G1 X112.402 Y97.454 E.01711
G1 X115.054 Y100.107 E.11898
G1 X114.821 Y100.413 E.0122
G1 X111.862 Y97.454 E.1327
G1 X111.323 Y97.454 E.01711
G1 X114.606 Y100.737 E.14725
G1 X114.397 Y101.068 E.01241
G1 X110.783 Y97.454 E.16211
G1 X110.243 Y97.454 E.01711
G1 X114.145 Y101.355 E.17501
G1 X113.605 Y101.355 E.01714
G1 X109.704 Y97.453 E.17497
G1 X109.164 Y97.453 E.01711
G1 X113.065 Y101.354 E.17494
G1 X112.524 Y101.353 E.01714
G1 X108.625 Y97.453 E.1749
G1 X108.085 Y97.453 E.01711
G1 X111.984 Y101.352 E.17487
G1 X111.444 Y101.351 E.01714
G1 X107.546 Y97.453 E.17483
G1 X107.006 Y97.453 E.01711
G1 X110.903 Y101.35 E.17479
G1 X110.363 Y101.349 E.01714
G1 X106.466 Y97.452 E.17476
G1 X105.927 Y97.452 E.01711
G1 X109.738 Y101.264 E.17095
G1 X109.065 Y101.13 E.02178
G1 X105.387 Y97.452 E.16494
G1 X104.848 Y97.452 E.01711
G1 X108.391 Y100.996 E.15894
G1 X107.718 Y100.862 E.02178
G1 X104.308 Y97.452 E.15294
G1 X103.769 Y97.451 E.01711
G1 X107.045 Y100.728 E.14694
G1 X106.371 Y100.593 E.02178
G1 X103.229 Y97.451 E.14093
G1 X102.689 Y97.451 E.01711
G1 X105.698 Y100.459 E.13493
G1 X105.024 Y100.325 E.02178
G1 X102.15 Y97.451 E.12893
G1 X101.61 Y97.451 E.01711
G1 X104.351 Y100.191 E.12292
G1 X103.678 Y100.057 E.02178
G1 X101.071 Y97.451 E.11691
G1 X101.072 Y97.991 E.01714
G1 X103.004 Y99.923 E.08666
G1 X102.331 Y99.789 E.02178
G1 X101.073 Y98.532 E.0564
G1 X101.074 Y99.072 E.01714
G1 X101.873 Y99.871 E.03583
M204 S1000
;WIPE_START
G1 F8640
G1 X101.074 Y99.072 E-.26088
G1 X101.073 Y98.532 E-.12482
G1 X102.219 Y99.678 E-.3743
;WIPE_END
G1 E-.04 F2100
G1 Z.6 F720
G1 X147.706 Y98.062 F10800
G1 Z.2 F720
G1 E.8 F2100
M204 S800
;WIDTH:0.421925
G1 F1200
G1 X147.11 Y97.466 E.02657
G1 X146.574 Y97.465 E.0169
G1 X147.536 Y98.428 E.04289
G1 X147.536 Y98.963 E.01688
G1 X146.038 Y97.465 E.06677
G1 X145.501 Y97.465 E.0169
G1 X147.535 Y99.499 E.09065
G1 X147.535 Y100.035 E.01688
G1 X144.965 Y97.465 E.11453
G1 X144.429 Y97.465 E.0169
G1 X147.534 Y100.57 E.1384
G1 X147.534 Y101.106 E.01688
G1 X143.893 Y97.465 E.16228
G1 X143.357 Y97.464 E.0169
G1 X147.534 Y101.641 E.18616
G1 X147.533 Y102.177 E.01688
G1 X142.82 Y97.464 E.21004
G1 X142.284 Y97.464 E.0169
G1 X147.533 Y102.712 E.23391
G1 X147.532 Y103.248 E.01688
G1 X141.748 Y97.464 E.25779
G1 X141.212 Y97.464 E.0169
G1 X147.532 Y103.784 E.28167
G1 X147.532 Y104.319 E.01688
G1 X140.676 Y97.463 E.30555
G1 X140.14 Y97.463 E.0169
G1 X147.531 Y104.855 E.32942
G1 X147.531 Y105.39 E.01688
G1 X139.603 Y97.463 E.3533
G1 X139.067 Y97.463 E.0169
G1 X147.53 Y105.926 E.37718
G1 X147.53 Y106.461 E.01688
G1 X138.531 Y97.463 E.40105
G1 X137.995 Y97.463 E.0169
G1 X147.529 Y106.997 E.42493
G1 X147.529 Y107.533 E.01688
G1 X137.459 Y97.462 E.44881
G1 X136.923 Y97.462 E.0169
G1 X147.529 Y108.068 E.47269
G1 X147.528 Y108.604 E.01688
G1 X136.386 Y97.462 E.49656
G1 X135.85 Y97.462 E.0169
G1 X147.528 Y109.139 E.52044
G1 X147.527 Y109.675 E.01688
G1 X135.314 Y97.462 E.54432
G1 X134.778 Y97.462 E.0169
G1 X147.527 Y110.211 E.5682
G1 X147.527 Y110.746 E.01688
M73 P1 R51
M73 Q2 S52
G1 X134.242 Y97.461 E.59207
G1 X133.706 Y97.461 E.0169
M73 P2 R51
G1 X147.526 Y111.282 E.61595
G1 X147.526 Y111.817 E.01688
G1 X133.169 Y97.461 E.63983
G1 X132.633 Y97.461 E.0169
G1 X147.525 Y112.353 E.66371
G1 X147.525 Y112.537 E.00582
G1 X147.174 Y112.537 E.01107
G1 X132.097 Y97.461 E.67194
G1 X131.561 Y97.461 E.0169
G1 X146.638 Y112.538 E.67196
G1 X146.102 Y112.538 E.01689
G1 X131.025 Y97.46 E.67197
G1 X130.489 Y97.46 E.0169
G1 X145.566 Y112.538 E.67198
G1 X145.03 Y112.538 E.01689
G1 X129.952 Y97.46 E.672
G1 X129.416 Y97.46 E.0169
G1 X144.495 Y112.538 E.67201
G1 X143.959 Y112.538 E.01689
G1 X128.88 Y97.46 E.67203
G1 X128.344 Y97.459 E.0169
G1 X143.423 Y112.538 E.67204
G1 X142.887 Y112.539 E.01689
G1 X127.808 Y97.459 E.67205
G1 X127.272 Y97.459 E.0169
G1 X142.351 Y112.539 E.67207
G1 X141.815 Y112.539 E.01689
G1 X126.735 Y97.459 E.67208
G1 X126.199 Y97.459 E.0169
G1 X141.279 Y112.539 E.6721
G1 X140.744 Y112.539 E.01689
M73 Q2 S51
G1 X125.663 Y97.459 E.67211
G1 X125.127 Y97.458 E.0169
G1 X140.208 Y112.539 E.67212
G1 X139.672 Y112.539 E.01689
G1 X127.95 Y100.817 E.52243
G1 X127.528 Y100.202 E.02351
G1 X127.051 Y99.635 E.02336
G1 X126.469 Y99.068 E.0256
G1 X125.893 Y98.607 E.02326
G1 X125.445 Y98.312 E.0169
G1 X124.591 Y97.458 E.03807
G1 X124.055 Y97.458 E.0169
G1 X124.667 Y98.07 E.02728
M204 S1000
;WIPE_START
G1 F8640
G1 X124.055 Y97.458 E-.19991
G1 X124.591 Y97.458 E-.1238
G1 X125.445 Y98.312 E-.27891
G1 X125.893 Y98.607 E-.12382
G1 X126.007 Y98.697 E-.03356
;WIPE_END
G1 E-.04 F2100
G1 Z.6 F720
G1 X128.181 Y101.584 F10800
G1 Z.2 F720
G1 E.8 F2100
M204 S800
G1 F1200
G1 X139.136 Y112.54 E.48825
G1 X138.6 Y112.54 E.01689
G1 X128.83 Y102.77 E.43543
G1 X129.003 Y103.479 E.023
G1 X138.064 Y112.54 E.40385
G1 X137.529 Y112.54 E.01689
G1 X129.096 Y104.108 E.37581
G1 X129.135 Y104.682 E.01815
G1 X136.993 Y112.54 E.35021
G1 X136.457 Y112.54 E.01689
G1 X129.142 Y105.226 E.32599
G1 X129.116 Y105.735 E.01607
G1 X135.921 Y112.54 E.30329
G1 X135.385 Y112.541 E.01689
G1 X129.051 Y106.207 E.28229
G1 X128.968 Y106.659 E.0145
G1 X134.849 Y112.541 E.26212
G1 X134.313 Y112.541 E.01689
G1 X128.866 Y107.093 E.24278
G1 X128.736 Y107.5 E.01344
G1 X133.778 Y112.541 E.22467
G1 X133.242 Y112.541 E.01689
G1 X128.599 Y107.898 E.20692
G1 X128.434 Y108.27 E.0128
G1 X132.706 Y112.541 E.19038
G1 X132.17 Y112.541 E.01689
